src/svgs/translation.svg

<svg fill="none" height="15" viewBox="0 0 15 15" width="15" xmlns="http://www.w3.org/2000/svg"><g fill="#ff8600"><path d="m7.50019 14.2969c-1.74797 0-3.42539-.6785-4.68375-1.875h.93375v-.4688h-1.40625c-.12961 0-.23437.1048-.23437.2344v.1343l-.02461.022c.00797.0089.01664.0174.02461.0263v1.2237h.46875v-.7517c1.33523 1.2291 3.09257 1.9235 4.92187 1.9235.0811 0 .16149-.0014.24188-.0042l-.015-.4683c-.07547.0024-.15094.0038-.22688.0038z"/><path d="m10.7051 13.496.2215.413c.1397-.0748.277-.1542.4109-.2379l-.2478-.3977c-.1256.078-.2538.1523-.3846.2226z"/><path d="m9.89648 13.8635.16522.4386c.1477-.0556.2953-.1168.439-.1822l-.1936-.4265c-.1348.0609-.2716.1179-.41062.1701z"/><path d="m11.459 13.0246.2738.3809c.1284-.0926.254-.1889.3759-.289l-.2972-.3626c-.1146.0938-.232.1842-.3525.2707z"/><path d="m9.04688 14.1207.1057.4563c.15516-.0358.30937-.0771.45914-.1225l-.1364-.4486c-.14086.0428-.28383.0813-.42844.1148z"/><path d="m8.16992 14.2648.0457.4665c.15867-.0155.3157-.0361.47063-.0619l-.07594-.4624c-.14531.0241-.29227.0433-.44039.0578z"/><path d="m13.6904 10.3118.4266.1941c.0656-.1442.1268-.2918.1818-.4383l-.4385-.16526c-.052.13876-.109.27546-.1699.40946z"/><path d="m12.1455 12.4624.3203.342c.1156-.1083.2279-.2201.3359-.3356l-.342-.3204c-.1012.108-.206.2125-.3142.314z"/><path d="m14.2061 8.61835.4624.07594c.0256-.15539.0464-.31219.0621-.47039l-.4664-.04617c-.0148.14812-.0342.29531-.0581.44062z"/><path d="m14.0039 9.48117.4486.13642c.0459-.15164.0874-.30611.1228-.45868l-.4564-.10618c-.0335.14438-.0719.28758-.115.42844z"/><path d="m12.7529 11.8127.3621.2977c.1005-.1221.1971-.248.2892-.3762l-.3809-.2733c-.0862.12-.1765.2374-.2704.3518z"/><path d="m13.2715 11.0927.3978.2482c.0839-.1348.164-.2731.2381-.4109l-.4135-.221c-.0698.1303-.1441.2583-.2224.3837z"/><path d="m14.2967 7.5c0 .07594-.0014.15141-.0037.22687l.4683.01501c.0028-.0804.0042-.16102.0042-.24188z"/><path d="m.234375 7.4997h.46875c0-.07594.001406-.15141.00375-.22689l-.468281-.015c-.002813.0804-.004219.16103-.004219.24189z"/><path d="m2.24507 3.18805-.36211-.29743c-.10031.12212-.19687.24775-.28921.37618l.38086.27352c.08648-.12047.17671-.23813.27046-.35227z"/><path d="m1.72766 3.90984-.39773-.24773c-.08344.13406-.16289.27117-.23813.41109l.41344.22125c.07008-.13054.14438-.25898.22242-.38461z"/><path d="m2.85231 2.53923-.32039-.34196c-.11531.10805-.22735.22008-.33563.33563l.34196.32062c.10148-.10828.20601-.21304.31406-.31429z"/><path d="m4.29227 1.50501-.22149-.41321c-.13968.07477-.27656.15422-.41062.23789l.2482.39774c.12516-.07828.25336-.15235.38391-.22242z"/><path d="m5.94812.882108-.10711-.456327c-.15422.036093-.3075.077343-.4582.123281l.1364.448358c.1411-.042891.2843-.081328.42891-.115312z"/><path d="m3.53836 1.9761-.27375-.3804c-.12844.09235-.25383.18891-.37594.28899l.29766.36234c.11414-.09398.23179-.18445.35203-.27093z"/><path d="m5.0996 1.13969-.16523-.438518c-.14719.055547-.29461.116718-.43828.182109l.19406.426559c.13406-.06093.27094-.11789.40945-.17015z"/><path d="m6.82344.73789-.04617-.466406c-.1582.015703-.31523.036328-.47063.062109l.07641.462657c.14531-.024375.29227-.043594.44039-.05836z"/><path d="m.269531 6.78312.466406.04594c.014532-.14836.033985-.29508.057657-.44062l-.462422-.07594c-.025313.15539-.045938.31219-.061641.47062z"/><path d="m.881328 4.49805c-.06539.14391-.126562.29157-.182109.43922l.438521.16524c.0525-.13922.10945-.2761.17039-.41039z"/><path d="m.423828 5.84781.456327.10594c.03375-.14461.071953-.28758.114843-.42891l-.448592-.13617c-.045469.15047-.086953.30492-.122578.45914z"/><path d="m7.50015.703125c1.74797 0 3.42535.678755 4.68375 1.874995h-.9338v.46876h1.4063c.1296 0 .2343-.10501.2343-.23438v-.1343l.0246-.02203c-.0079-.0089-.0166-.01734-.0246-.02625v-1.22367h-.4687v.75164c-1.3352-1.229062-3.09255-1.923515-4.92185-1.923515-.08133 0-.16172.001172-.24234.003984l.01594.468516c.075-.002578.1507-.00375.2264-.00375z"/><path d="m8.67188 11.25v-3.04688h2.48112l1.3375 1.33758c.0448.04477.1048.06868.1657.06868.0303 0 .0608-.00562.0898-.01781.0877-.03609.1446-.12188.1446-.21657v-1.17188h.7032c.1296 0 .2343-.10476.2343-.23437v-4.21874c0-.12937-.1047-.23439-.2343-.23439h-7.0313c-.12961 0-.23438.10502-.23438.23439v3.04687h-2.4811l-1.33758-1.33757c-.06703-.06703-.16781-.08696-.25547-.05086-.08765.03633-.14459.12187-.14459.21656v1.17187h-.70314c-.12961 0-.23436.10501-.23436.23438v4.21874c0 .1296.10475.2344.23436.2344h7.03126c.12961 0 .23438-.1048.23438-.2344zm-1.875-7.26561h6.56252v3.74999h-.7032c-.1296 0-.2343.10476-.2343.23437v.84048l-1.0062-1.00618c-.0438-.04407-.1034-.06867-.1657-.06867h-2.57812v-.70312c0-.12937-.10477-.23438-.23438-.23438h-1.64062zm1.40624 7.03121h-6.56251v-3.74997h.70313c.12961 0 .23437-.105.23437-.23437v-.84047l1.00619 1.00616c.04382.04407.10335.06868.16569.06868h4.45313z"/><path d="m9.84375 6.79688h.46875v.46874h-.46875z"/><path d="m9.84375 4.45312h.46875v1.875h-.46875z"/><path d="m4.45312 8.67157c0-.13898.06117-.26976.16757-.35906.10805-.09094.2454-.12703.38814-.10195.18422.03234.34172.18984.37406.37406.03211.18187-.03962.36094-.18704.46734-.32297.23344-.50836.57516-.50836.93751v.08833h.46875v-.08833c0-.21.11439-.41344.31407-.55758.29414-.21211.43758-.5679.37453-.92837-.06656-.37781-.37687-.68836-.75492-.75492-.2782-.04781-.55804.02602-.77062.20461-.21282.17883-.33492.44063-.33492.71836v.23438h.46874z"/><path d="m4.6875 10.3125h.46875v.4687h-.46875z"/></g></svg>

<svg width="15" height="15" viewBox="0 0 15 15" fill="none" xmlns="http://www.w3.org/2000/svg">
<path d="M7.50019 14.2969C5.75222 14.2969 4.0748 13.6184 2.81644 12.4219H3.75019V11.9531H2.34394C2.21433 11.9531 2.10957 12.0579 2.10957 12.1875V12.3218L2.08496 12.3438C2.09293 12.3527 2.1016 12.3612 2.10957 12.3701V13.5938H2.57832V12.8421C3.91355 14.0712 5.67089 14.7656 7.50019 14.7656C7.58129 14.7656 7.66168 14.7642 7.74207 14.7614L7.72707 14.2931C7.6516 14.2955 7.57613 14.2969 7.50019 14.2969Z" fill="#FF8600"/>
<path d="M10.7051 13.496L10.9266 13.909C11.0663 13.8342 11.2036 13.7548 11.3375 13.6711L11.0897 13.2734C10.9641 13.3514 10.8359 13.4257 10.7051 13.496Z" fill="#FF8600"/>
<path d="M9.89648 13.8635L10.0617 14.3021C10.2094 14.2465 10.357 14.1853 10.5007 14.1199L10.3071 13.6934C10.1723 13.7543 10.0355 13.8113 9.89648 13.8635Z" fill="#FF8600"/>
<path d="M11.459 13.0246L11.7328 13.4055C11.8612 13.3129 11.9868 13.2166 12.1087 13.1165L11.8115 12.7539C11.6969 12.8477 11.5795 12.9381 11.459 13.0246Z" fill="#FF8600"/>
<path d="M9.04688 14.1207L9.15258 14.577C9.30774 14.5412 9.46195 14.4999 9.61172 14.4545L9.47532 14.0059C9.33446 14.0487 9.19149 14.0872 9.04688 14.1207Z" fill="#FF8600"/>
<path d="M8.16992 14.2648L8.21562 14.7313C8.37429 14.7158 8.53132 14.6952 8.68625 14.6694L8.61031 14.207C8.465 14.2311 8.31804 14.2503 8.16992 14.2648Z" fill="#FF8600"/>
<path d="M13.6904 10.3118L14.117 10.5059C14.1826 10.3617 14.2438 10.2141 14.2988 10.0676L13.8603 9.90234C13.8083 10.0411 13.7513 10.1778 13.6904 10.3118Z" fill="#FF8600"/>
<path d="M12.1455 12.4624L12.4658 12.8044C12.5814 12.6961 12.6937 12.5843 12.8017 12.4688L12.4597 12.1484C12.3585 12.2564 12.2537 12.3609 12.1455 12.4624Z" fill="#FF8600"/>
<path d="M14.2061 8.61835L14.6685 8.69429C14.6941 8.5389 14.7149 8.3821 14.7306 8.2239L14.2642 8.17773C14.2494 8.32585 14.23 8.47304 14.2061 8.61835Z" fill="#FF8600"/>
<path d="M14.0039 9.48117L14.4525 9.61759C14.4984 9.46595 14.5399 9.31148 14.5753 9.15891L14.1189 9.05273C14.0854 9.19711 14.047 9.34031 14.0039 9.48117Z" fill="#FF8600"/>
<path d="M12.7529 11.8127L13.115 12.1104C13.2155 11.9883 13.3121 11.8624 13.4042 11.7342L13.0233 11.4609C12.9371 11.5809 12.8468 11.6983 12.7529 11.8127Z" fill="#FF8600"/>
<path d="M13.2715 11.0927L13.6693 11.3409C13.7532 11.2061 13.8333 11.0678 13.9074 10.93L13.4939 10.709C13.4241 10.8393 13.3498 10.9673 13.2715 11.0927Z" fill="#FF8600"/>
<path d="M14.2967 7.5C14.2967 7.57594 14.2953 7.65141 14.293 7.72687L14.7613 7.74188C14.7641 7.66148 14.7655 7.58086 14.7655 7.5H14.2967Z" fill="#FF8600"/>
<path d="M0.234375 7.4997H0.703125C0.703125 7.42376 0.704531 7.34829 0.706875 7.27281L0.238594 7.25781C0.235781 7.33821 0.234375 7.41884 0.234375 7.4997Z" fill="#FF8600"/>
<path d="M2.24507 3.18805L1.88296 2.89062C1.78265 3.01274 1.68609 3.13837 1.59375 3.2668L1.97461 3.54032C2.06109 3.41985 2.15132 3.30219 2.24507 3.18805Z" fill="#FF8600"/>
<path d="M1.72766 3.90984L1.32993 3.66211C1.24649 3.79617 1.16704 3.93328 1.0918 4.0732L1.50524 4.29445C1.57532 4.16391 1.64962 4.03547 1.72766 3.90984Z" fill="#FF8600"/>
<path d="M2.85231 2.53923L2.53192 2.19727C2.41661 2.30532 2.30457 2.41735 2.19629 2.5329L2.53825 2.85352C2.63973 2.74524 2.74426 2.64048 2.85231 2.53923Z" fill="#FF8600"/>
<path d="M4.29227 1.50501L4.07078 1.0918C3.9311 1.16657 3.79422 1.24602 3.66016 1.32969L3.90836 1.72743C4.03352 1.64915 4.16172 1.57508 4.29227 1.50501Z" fill="#FF8600"/>
<path d="M5.94812 0.882108L5.84101 0.425781C5.68679 0.461874 5.53351 0.503124 5.38281 0.549062L5.51921 0.99742C5.66031 0.954529 5.80351 0.916092 5.94812 0.882108Z" fill="#FF8600"/>
<path d="M3.53836 1.9761L3.26461 1.5957C3.13617 1.68805 3.01078 1.78461 2.88867 1.88469L3.18633 2.24703C3.30047 2.15305 3.41812 2.06258 3.53836 1.9761Z" fill="#FF8600"/>
<path d="M5.0996 1.13969L4.93437 0.701172C4.78718 0.756719 4.63976 0.81789 4.49609 0.883281L4.69015 1.30984C4.82421 1.24891 4.96109 1.19195 5.0996 1.13969Z" fill="#FF8600"/>
<path d="M6.82344 0.73789L6.77727 0.271484C6.61907 0.287187 6.46204 0.307812 6.30664 0.333593L6.38305 0.79625C6.52836 0.771875 6.67532 0.752656 6.82344 0.73789Z" fill="#FF8600"/>
<path d="M0.269531 6.78312L0.735937 6.82906C0.750469 6.6807 0.769922 6.53398 0.793594 6.38844L0.331172 6.3125C0.305859 6.46789 0.285234 6.62469 0.269531 6.78312Z" fill="#FF8600"/>
<path d="M0.881328 4.49805C0.815938 4.64196 0.754766 4.78962 0.699219 4.93727L1.13774 5.10251C1.19024 4.96329 1.24719 4.82641 1.30813 4.69212L0.881328 4.49805Z" fill="#FF8600"/>
<path d="M0.423828 5.84781L0.880155 5.95375C0.913905 5.80914 0.952108 5.66617 0.994998 5.52484L0.546406 5.38867C0.500937 5.53914 0.459453 5.69359 0.423828 5.84781Z" fill="#FF8600"/>
<path d="M7.50015 0.703125C9.24812 0.703125 10.9255 1.38188 12.1839 2.57812H11.2501V3.04688H12.6564C12.786 3.04688 12.8907 2.94187 12.8907 2.8125V2.6782L12.9153 2.65617C12.9074 2.64727 12.8987 2.63883 12.8907 2.62992V1.40625H12.422V2.15789C11.0868 0.928828 9.32945 0.234375 7.50015 0.234375C7.41882 0.234375 7.33843 0.235547 7.25781 0.238359L7.27375 0.706875C7.34875 0.704297 7.42445 0.703125 7.50015 0.703125Z" fill="#FF8600"/>
<path d="M8.67188 11.25V8.20312H11.153L12.4905 9.5407C12.5353 9.58547 12.5953 9.60938 12.6562 9.60938C12.6865 9.60938 12.717 9.60376 12.746 9.59157C12.8337 9.55548 12.8906 9.46969 12.8906 9.375V8.20312H13.5938C13.7234 8.20312 13.8281 8.09836 13.8281 7.96875V3.75001C13.8281 3.62064 13.7234 3.51562 13.5938 3.51562H6.5625C6.43289 3.51562 6.32812 3.62064 6.32812 3.75001V6.79688H3.84702L2.50944 5.45931C2.44241 5.39228 2.34163 5.37235 2.25397 5.40845C2.16632 5.44478 2.10938 5.53032 2.10938 5.62501V6.79688H1.40624C1.27663 6.79688 1.17188 6.90189 1.17188 7.03126V11.25C1.17188 11.3796 1.27663 11.4844 1.40624 11.4844H8.4375C8.56711 11.4844 8.67188 11.3796 8.67188 11.25ZM6.79688 3.98439H13.3594V7.73438H12.6562C12.5266 7.73438 12.4219 7.83914 12.4219 7.96875V8.80923L11.4157 7.80305C11.3719 7.75898 11.3123 7.73438 11.25 7.73438H8.67188V7.03126C8.67188 6.90189 8.56711 6.79688 8.4375 6.79688H6.79688V3.98439ZM8.20312 11.0156H1.64061V7.26563H2.34374C2.47335 7.26563 2.57811 7.16063 2.57811 7.03126V6.19079L3.5843 7.19695C3.62812 7.24102 3.68765 7.26563 3.74999 7.26563H8.20312V11.0156Z" fill="#FF8600"/>
<path d="M9.84375 6.79688H10.3125V7.26562H9.84375V6.79688Z" fill="#FF8600"/>
<path d="M9.84375 4.45312H10.3125V6.32812H9.84375V4.45312Z" fill="#FF8600"/>
<path d="M4.45312 8.67157C4.45312 8.53259 4.51429 8.40181 4.62069 8.31251C4.72874 8.22157 4.86609 8.18548 5.00883 8.21056C5.19305 8.2429 5.35055 8.4004 5.38289 8.58462C5.415 8.76649 5.34327 8.94556 5.19585 9.05196C4.87288 9.2854 4.68749 9.62712 4.68749 9.98947V10.0778H5.15624V9.98947C5.15624 9.77947 5.27063 9.57603 5.47031 9.43189C5.76445 9.21978 5.90789 8.86399 5.84484 8.50352C5.77828 8.12571 5.46797 7.81516 5.08992 7.7486C4.81172 7.70079 4.53188 7.77462 4.3193 7.95321C4.10648 8.13204 3.98438 8.39384 3.98438 8.67157V8.90595H4.45312V8.67157Z" fill="#FF8600"/>
<path d="M4.6875 10.3125H5.15625V10.7812H4.6875V10.3125Z" fill="#FF8600"/>
</svg>
